!!!!SEGMENT: pl-wnifc--6670-n--001-020_gall-jan-karol--piesni-polskie-na-chor-meski-z-i-8-przybiezeli-do-betlejem-pasterze.krn
!!!cenid: 19xx:188
!!!COM: Gall, Jan Karol
!!!COM-rismID: pe50042628
!!!CDT: 1856-1912
!!!CNT: Polish
!!!GTL: Pieśni polskie na chór męski (z. I)
!!!OTL: 8. Przybieżeli do Betlejem pasterze
!!!OMV: 020
!!!PDT:
!!!AGN:
!!!YEC: Copyright 2022 Narodowy Instytut Fryderyka Chopina (https://polishscores.org)
!!!YEM: License CC-BY-4.0 (https://creativecommons.org/licenses/by/4.0)
!!!SMS-siglum: PL-Wnifc
!!!SMS-shelfmark: 6670/n
!!!SMS-variant:
!!!SMS-altvar:
!!!SMS-shelfwork: 001-020 G
!!!NIFC-rismSourceID: 1001152877
!!!NIFC-rismChildID: 1001152909
!!!NIFC-islandoraID: nifc:213182
!!!URL-pdf-islandora: https://repozytorium.nifc.pl/islandora/object/nifc:213182/datastream/PDF/view
!!!URL-scan: https://polish.musicsources.pl/pl/lokalizacje/galeria/druki-muzyczne/16895/10 @EN{Scan on Polish Music Sources Website} @PL{Skany w portalu Dziedzictwo Muzyki Polskiej w otwartym dostępie}
!!!IIIF:
!!!ONB-nifc:
!!!AIN: 1 bass 1 tenor
!!!key: G
**kern	**text	**dynam	**kern	**text	**text	**dynam
*part2	*part2	*part2	*part1	*part1	*part1	*part1
*staff2	*staff2	*	*staff1	*staff1	*staff1	*
*ICvox	*	*	*ICvox	*	*	*
*Ibass	*	*	*Itenor	*	*	*
*I"Basy.	*	*	*I"Tenory.	*	*	*
*I'	*	*	*I'	*	*	*
*clefF4	*	*	*clefGv	*	*	*
*	*	*	*ITrd8c12	*	*	*
*k[f#]	*	*	*k[f#]	*	*	*
*G:	*	*	*G:	*	*	*
*M4/4	*	*	*M4/4	*	*	*
*met(c)	*	*	*met(c)	*	*	*
*>[A,A]	*>[A,A]	*>[A,A]	*>[A,A]	*>[A,A]	*>[A,A]	*>[A,A]
=1	=1	=1	=1	=1	=1	=1
*>A	*>A	*>A	*>A	*>A	*>A	*>A
*^	*	*	*^	*	*	*
*	*	*	*below	*	*	*	*	*
!!LO:TX:a:B:t=Allegro non troppo.
!	!	!	!LO:DY:b:rj	!	!	!	!	!LO:DY:a:rj
8BB/	8GG\	.	mf	8G/	8G\	Przy-	Dzie-	mf
8AA/	8GG\	.	.	8F#/	8F#\	-bie-	-ciąt-	.
!	!	!	!	!	!	!	!	!LO:HP:a
8BB/	8GG\	.	<	8G/	8G\	-że-	-ko	<
8C/	8GG\	.	.	8A/	8G\	-li	się	.
8D/	8GG\	.	[	8B/	8G\	do	do	[
8C/	8GG\	.	.	8A/	8G\	Be-	pas-	.
8D/	8GG\	.	.	8B/	8G\	-tle-	-tusz-	.
8E-X/	8GG\	.	.	8c/	8A\	-em	-ków	.
=2	=2	=2	=2	=2	=2	=2	=2	=2
!	!	!	!LO:DY:a:rj	!	!	!	!	!LO:DY:a:rj
4D/	4GG\	.	f	4d/	4B\	pa-	u-	f
4C#X/	4GG\	.	.	4g/	4A#X\	-ste-	-śmie-	.
4D/	4GG\	.	.	4d/	4B\	-rze,	-cha	.
4r	4ryy	.	.	4r	4ryy	.	.	.
=3	=3	=3	=3	=3	=3	=3	=3	=3
!	!	!	!LO:DY:b:rj	!	!	!	!	!LO:DY:a:rj
8BB/	8GG\	.	mf	8G/	8G\	Przy-	ja-	mf
!	!	!	!	!	!	!	!	!LO:HP:a
8AA/	8GG\	.	<	8F#/	8F#\	-gry-	-ko	<
8BB/	8GG\	.	.	8G/	8G\	-wa-	Je-	.
8C/	8GG\	.	.	8A/	8G\	-jąc	-zus	.
8D/	8GG\	.	[	8B/	8G\	dzie-	czys-	[
8C/	8GG\	.	.	8A/	8G\	-cią-	-tem	.
8D/	8GG\	.	.	8B/	8G\	-tecz-	ser-	.
8E-X/	8GG\	.	.	8c/	8A\	-ku	-cem	.
!!LO:LB:g=original
=4	=4	=4	=4	=4	=4	=4	=4	=4
!	!	!	!LO:DY:b:rj	!	!	!	!	!LO:DY:a:rj
4D/	4GG\	.	f	4d/	4B\	na	od-	f
8En/L	4GG\	.	.	4g/	8c\L	li-	-dy-	.
8F#/J	.	.	.	.	8A\J	.	.	.
4G/	4GG\	.	.	4d/	4B\	rze	-cha	.
4r	4ryy	.	.	4r	4ryy	.	.	.
=5	=5	=5	=5	=5	=5	=5	=5	=5
!	!	!	!LO:DY:b:rj	!	!	!	!	!LO:DY:a:rj
4D/	4GG\	.	f	4g/	4B\	Wi-	.	f
4D/	4BB\	.	.	4d/	4G\	-ta-	.	.
8C/	8C\	.	.	8e/	8G\	-ją	.	.
8D/	8BB\	.	.	8d/	8G\	dzie-	.	.
8C/	8C\	.	.	8e/	8G\	-ciąt-	.	.
8D/	8BB\	.	.	8d/	8G\	-ko	.	.
=6	=6	=6	=6	=6	=6	=6	=6	=6
!	!	!	!LO:DY:b:rj	!	!	!	!	!LO:DY:a:rj
4E/	4AA\	.	p	4c/	4A\	ma-	.	p
8E/L	4GG\	.	.	4c/	4A\	-łe	.	.
8E-X/J	.	.	.	.	.	.	.	.
4D/	4FF#\	ma-	.	8B/	8G#X\	pa-	.	.
.	.	.	.	8c/	8A\	-cho-	.	.
4D/	4DD\	-łe	.	8d/	8B\	-ląt-	.	.
.	.	.	.	8c/	8A\	-ko	.	.
=7	=7	=7	=7	=7	=7	=7	=7	=7
!	!	!	!	!	!	!	!	!LO:HP:a
4D/	4GG\	.	<	4B/	4Gn\	pa-	.	<
4D/	4AA\	.	.	4c/	4G\	-ste-	.	.
2D/	2BB\	.	[	2d/	2G\	-rze	.	[
!!LO:LB:g=original
=8	=8	=8	=8	=8	=8	=8	=8	=8
4D/	4GG\	.	.	4B/	4G\	pa-	.	.
!	!	!	!	!	!	!	!	!LO:HP:a
8E/L	8C\L	.	>	4A/	8G\L	-ste-	.	>
8D/J	8D\J	.	.	.	8F#\J	.	.	.
2BB/	2GG\	.	]	2G/	2G\	rze	.	]
=9	=9	=9	=9	=9	=9	=9	=9	=9
!	!	!	!LO:DY:b:rj	!	!	!	!	!LO:DY:a:rj
4D/	4GG\	.	f	4g/	4B\	Wi-	.	f
4D/	4BB\	.	.	4d/	4G\	-ta-	.	.
8C/	8C\	.	.	8e/	8G\	-ją	.	.
8D/	8BB\	.	.	8d/	8G\	dzie-	.	.
8C/	8C\	.	.	8e/	8G\	-ciąt-	.	.
8D/	8BB\	.	.	8d/	8G\	-ko	.	.
=10	=10	=10	=10	=10	=10	=10	=10	=10
!	!	!	!LO:DY:b:rj	!	!	!	!	!LO:DY:a:rj
4E/	4AA\	.	p	4c/	4A\	ma-	.	p
8E/L	4GG\	.	.	4c/	4A\	-łe	.	.
8E-X/J	.	.	.	.	.	.	.	.
4D/	4FF#\	ma-	.	8B/	8G#X\	pa-	.	.
.	.	.	.	8c/	8A\	-cho-	.	.
4D/	4DD\	-łe	.	8d/	8B\	-ląt-	.	.
.	.	.	.	8c/	8A\	-ko	.	.
=11	=11	=11	=11	=11	=11	=11	=11	=11
!	!	!	!	!	!	!	!	!LO:HP:a
4D/	4GG\	.	<	4B/	4G\	pa-	.	<
4D/	4AA\	.	.	4c/	4G\	-ste-	.	.
2D/	2BB\	.	[	2d/	2G\	-rze	.	[
=12	=12	=12	=12	=12	=12	=12	=12	=12
4D/	4GG\	.	.	4B/	4G\	pa-	.	.
!	!	!	!	!	!	!	!	!LO:HP:a
8E/L	8C\L	.	>	4A/	8G\L	-ste-	.	>
8D/J	8D\J	.	.	.	8F#\J	.	.	.
4BB/	4GG;<\	.	]	4G;/	4G\	-rze.	.	]
4r	4ryy	.	.	4r	4ryy	.	.	.
*v	*v	*	*	*	*	*	*	*
*	*	*	*v	*v	*	*	*
=:|!	=:|!	=:|!	=:|!	=:|!	=:|!	=:|!
*-	*-	*-	*-	*-	*-	*-
!!!system-decoration: [(s1,s2)]
!!!RDF**kern: > = above
!!!RDF**kern: < = below
!!!RDF**kern: N = linked
!!!ENC: Filip Voros
!!!EED: Katarzyna Serwa
!!!END: 2024-05-03
!!!EEV: 2025-03-10
